gama.ui.shared/icons_svg/dark/generic/menu.cut.svg

<svg height="25" viewBox="-742.774 -3167.932 25 25" width="25" xmlns="http://www.w3.org/2000/svg"><g fill="none"><path d="m-738.4341-3167.4315h16.32c2.1208 0 3.84 1.7192 3.84 3.84v16.32c0 2.1208-1.7192 3.84-3.84 3.84h-16.32c-2.1208 0-3.84-1.7192-3.84-3.84v-16.32c0-2.1208 1.7192-3.84 3.84-3.84z" fill="#666"/><path d="m-738.4341-3167.4315h16.32c2.1208 0 3.84 1.7192 3.84 3.84v16.32c0 2.1208-1.7192 3.84-3.84 3.84h-16.32c-2.1208 0-3.84-1.7192-3.84-3.84v-16.32c0-2.1208 1.7192-3.84 3.84-3.84z" stroke="#fff" stroke-linecap="round" stroke-linejoin="round" stroke-width=".25"/><path d="m-726.7185-3162.3717h-4.8889c-.7378 0-1.3334.5957-1.3334 1.3334v8c0 .7377.5956 1.3333 1.3334 1.3333h6.2222c.7378 0 1.3333-.5956 1.3333-1.3333v-6.6667h-2.2222c-.2489 0-.4444-.1956-.4444-.4445zm3.5555 2.2489v7.0845c0 1.2266-.9955 2.2223-2.2222 2.2223h-6.2222c-1.2267 0-2.22225-.9957-2.22225-2.2223v-8c0-1.2267.99555-2.2223 2.22225-2.2223h5.3066c.1156 0 .24.0356.3378.1334l2.6667 2.6666c.0978.0978.1333.2223.1333.3378zm-2.66665-.4712h1.14665l-1.14665-1.1466zm-4.88885 2.6668c-.2489 0-.4445-.1956-.4445-.4445s.1956-.4443.4445-.4443h4.4444c.2489 0 .44445.1954.44445.4443s-.19555.4445-.44445.4445zm0 1.7777c-.2489 0-.4445-.1955-.4445-.4445 0-.2488.1956-.4443.4445-.4443h4.4444c.2489 0 .44445.1955.44445.4443 0 .249-.19555.4445-.44445.4445zm0 1.7778c-.2489 0-.4445-.1955-.4445-.4443 0-.249.1956-.4446.4445-.4446h3.5555c.2489 0 .4445.1956.4445.4446 0 .2488-.1956.4443-.4445.4443zm-6.6667-.4443c0-.249.19555-.4446.4444-.4446.2489 0 .4445.1956.4445.4446v2.6665c0 .2489-.1956.4445-.4445.4445-.24885 0-.4444-.1956-.4444-.4445zm4 7.5554c-.2489 0-.44445-.1954-.44445-.4444s.19555-.4445.44445-.4445h2.6667c.24885 0 .4444.1955.4444.4445s-.19555.4444-.4444.4444zm-1.7778-12.4444c.2489 0 .4445.1955.4445.4444s-.1956.4446-.4445.4446c-.7378 0-1.3333.5954-1.3333 1.3332 0 .2488-.1956.4445-.4445.4445-.24885 0-.4444-.1957-.4444-.4445 0-1.2267.99555-2.2222 2.2222-2.2222zm-2.2222 10.2222c0-.2489.19555-.4444.4444-.4444.2489 0 .4445.1955.4445.4444 0 .7378.5955 1.3333 1.3333 1.3333.2489 0 .4445.1955.4445.4445s-.1956.4444-.4445.4444c-1.22665 0-2.2222-.9954-2.2222-2.2222zm8.4444 2.2222c-.24885 0-.4444-.1954-.4444-.4444s.19555-.4445.4444-.4445c.7378 0 1.3334-.5955 1.3334-1.3333 0-.2489.1955-.4444.4444-.4444s.4445.1955.4445.4444c0 1.2268-.9956 2.2222-2.2223 2.2222z" fill="#c0e0ff"/></g></svg>

<?xml version="1.0" encoding="UTF-8" standalone="no"?>
<!DOCTYPE svg PUBLIC "-//W3C//DTD SVG 1.1//EN" "http://www.w3.org/Graphics/SVG/1.1/DTD/svg11.dtd">
<svg xmlns="http://www.w3.org/2000/svg" xmlns:xl="http://www.w3.org/1999/xlink" version="1.1" xmlns:dc="http://purl.org/dc/elements/1.1/" viewBox="-742.7741 -3167.9315 25 25" width="25" height="25">
  <defs/>
  <g id="SOURCES" stroke-opacity="1" fill="none" stroke="none" fill-opacity="1" stroke-dasharray="none">
    <title>SOURCES</title>
    <g id="SOURCES_Dark">
      <title>Dark</title>
      <g id="Graphic_11326">
        <path d="M -738.4341 -3167.4315 L -722.1141 -3167.4315 C -719.9933 -3167.4315 -718.2741 -3165.7123 -718.2741 -3163.5915 L -718.2741 -3147.2715 C -718.2741 -3145.1507 -719.9933 -3143.4315 -722.1141 -3143.4315 L -738.4341 -3143.4315 C -740.5549 -3143.4315 -742.2741 -3145.1507 -742.2741 -3147.2715 L -742.2741 -3163.5915 C -742.2741 -3165.7123 -740.5549 -3167.4315 -738.4341 -3167.4315 Z" fill="#666"/>
        <path d="M -738.4341 -3167.4315 L -722.1141 -3167.4315 C -719.9933 -3167.4315 -718.2741 -3165.7123 -718.2741 -3163.5915 L -718.2741 -3147.2715 C -718.2741 -3145.1507 -719.9933 -3143.4315 -722.1141 -3143.4315 L -738.4341 -3143.4315 C -740.5549 -3143.4315 -742.2741 -3145.1507 -742.2741 -3147.2715 L -742.2741 -3163.5915 C -742.2741 -3165.7123 -740.5549 -3167.4315 -738.4341 -3167.4315 Z" stroke="white" stroke-linecap="round" stroke-linejoin="round" stroke-width=".25"/>
      </g>
      <g id="Graphic_11325">
        <path d="M -726.7185 -3162.3717 L -731.6074 -3162.3717 C -732.3452 -3162.3717 -732.9408 -3161.776 -732.9408 -3161.0383 L -732.9408 -3153.0383 C -732.9408 -3152.3006 -732.3452 -3151.705 -731.6074 -3151.705 L -725.3852 -3151.705 C -724.6474 -3151.705 -724.0519 -3152.3006 -724.0519 -3153.0383 L -724.0519 -3159.705 L -726.2741 -3159.705 C -726.523 -3159.705 -726.7185 -3159.9006 -726.7185 -3160.1495 Z M -723.163 -3160.1228 L -723.163 -3153.0383 C -723.163 -3151.8117 -724.1585 -3150.816 -725.3852 -3150.816 L -731.6074 -3150.816 C -732.8341 -3150.816 -733.82965 -3151.8117 -733.82965 -3153.0383 L -733.82965 -3161.0383 C -733.82965 -3162.265 -732.8341 -3163.2606 -731.6074 -3163.2606 L -726.3008 -3163.2606 C -726.1852 -3163.2606 -726.0608 -3163.225 -725.963 -3163.1272 L -723.2963 -3160.4606 C -723.1985 -3160.3628 -723.163 -3160.2383 -723.163 -3160.1228 Z M -725.82965 -3160.594 L -724.683 -3160.594 L -725.82965 -3161.7406 Z M -730.7185 -3157.9272 C -730.9674 -3157.9272 -731.163 -3158.1228 -731.163 -3158.3717 C -731.163 -3158.6206 -730.9674 -3158.816 -730.7185 -3158.816 L -726.2741 -3158.816 C -726.0252 -3158.816 -725.82965 -3158.6206 -725.82965 -3158.3717 C -725.82965 -3158.1228 -726.0252 -3157.9272 -726.2741 -3157.9272 Z M -730.7185 -3156.1495 C -730.9674 -3156.1495 -731.163 -3156.345 -731.163 -3156.594 C -731.163 -3156.8428 -730.9674 -3157.0383 -730.7185 -3157.0383 L -726.2741 -3157.0383 C -726.0252 -3157.0383 -725.82965 -3156.8428 -725.82965 -3156.594 C -725.82965 -3156.345 -726.0252 -3156.1495 -726.2741 -3156.1495 Z M -730.7185 -3154.3717 C -730.9674 -3154.3717 -731.163 -3154.5672 -731.163 -3154.816 C -731.163 -3155.065 -730.9674 -3155.2606 -730.7185 -3155.2606 L -727.163 -3155.2606 C -726.9141 -3155.2606 -726.7185 -3155.065 -726.7185 -3154.816 C -726.7185 -3154.5672 -726.9141 -3154.3717 -727.163 -3154.3717 Z M -737.3852 -3154.816 C -737.3852 -3155.065 -737.18965 -3155.2606 -736.9408 -3155.2606 C -736.6919 -3155.2606 -736.4963 -3155.065 -736.4963 -3154.816 L -736.4963 -3152.1495 C -736.4963 -3151.9006 -736.6919 -3151.705 -736.9408 -3151.705 C -737.18965 -3151.705 -737.3852 -3151.9006 -737.3852 -3152.1495 Z M -733.3852 -3147.2606 C -733.6341 -3147.2606 -733.82965 -3147.456 -733.82965 -3147.705 C -733.82965 -3147.954 -733.6341 -3148.1495 -733.3852 -3148.1495 L -730.7185 -3148.1495 C -730.46965 -3148.1495 -730.2741 -3147.954 -730.2741 -3147.705 C -730.2741 -3147.456 -730.46965 -3147.2606 -730.7185 -3147.2606 Z M -735.163 -3159.705 C -734.9141 -3159.705 -734.7185 -3159.5095 -734.7185 -3159.2606 C -734.7185 -3159.0117 -734.9141 -3158.816 -735.163 -3158.816 C -735.9008 -3158.816 -736.4963 -3158.2206 -736.4963 -3157.4828 C -736.4963 -3157.234 -736.6919 -3157.0383 -736.9408 -3157.0383 C -737.18965 -3157.0383 -737.3852 -3157.234 -737.3852 -3157.4828 C -737.3852 -3158.7095 -736.38965 -3159.705 -735.163 -3159.705 Z M -737.3852 -3149.4828 C -737.3852 -3149.7317 -737.18965 -3149.9272 -736.9408 -3149.9272 C -736.6919 -3149.9272 -736.4963 -3149.7317 -736.4963 -3149.4828 C -736.4963 -3148.745 -735.9008 -3148.1495 -735.163 -3148.1495 C -734.9141 -3148.1495 -734.7185 -3147.954 -734.7185 -3147.705 C -734.7185 -3147.456 -734.9141 -3147.2606 -735.163 -3147.2606 C -736.38965 -3147.2606 -737.3852 -3148.256 -737.3852 -3149.4828 Z M -728.9408 -3147.2606 C -729.18965 -3147.2606 -729.3852 -3147.456 -729.3852 -3147.705 C -729.3852 -3147.954 -729.18965 -3148.1495 -728.9408 -3148.1495 C -728.203 -3148.1495 -727.6074 -3148.745 -727.6074 -3149.4828 C -727.6074 -3149.7317 -727.4119 -3149.9272 -727.163 -3149.9272 C -726.9141 -3149.9272 -726.7185 -3149.7317 -726.7185 -3149.4828 C -726.7185 -3148.256 -727.7141 -3147.2606 -728.9408 -3147.2606 Z" fill="#c0e0ff"/>
      </g>
    </g>
  </g>
</svg>
